school/img/country/AU.svg

<svg width="13" height="12" viewBox="0 0 13 12" fill="none" xmlns="http://www.w3.org/2000/svg">
<rect width="13" height="12" rx="2" fill="white"/>
<mask id="mask0" mask-type="alpha" maskUnits="userSpaceOnUse" x="0" y="0" width="13" height="12">
<rect width="13" height="12" rx="2" fill="white"/>
</mask>
<g mask="url(#mask0)">
<rect width="13" height="12" fill="#0A17A7"/>
<path d="M0 -0.333333H-0.75L-0.247423 0.223368L1.83333 2.5282V3.05406L-0.226093 4.95507L-0.333333 5.05406V5.2V5.6V6.29771L0.209446 5.85931L2.59399 3.93333H2.96491L5.00214 5.81385C5.08536 5.89067 5.19447 5.93333 5.30773 5.93333C5.69811 5.93333 5.90374 5.47067 5.64214 5.1809L3.7381 3.07179V2.54594L5.69028 0.743925C5.827 0.617721 5.90476 0.440121 5.90476 0.254056V0V-0.697712L5.36198 -0.259314L2.97744 1.66667H2.60652L0.535617 -0.244934L0.439852 -0.333333H0.309524H0Z" fill="#FF2E3B" stroke="white" stroke-width="0.666667"/>
<path fill-rule="evenodd" clip-rule="evenodd" d="M0 2V3.6H2.16667V5.38095C2.16667 5.72284 2.44382 6 2.78571 6V6C3.1276 6 3.40476 5.72284 3.40476 5.38095V3.6H5.21429C5.58247 3.6 5.88095 3.30152 5.88095 2.93333V2.66667C5.88095 2.29848 5.58248 2 5.21429 2H3.40476V0H2.16667V2H0Z" fill="url(#paint0_linear)"/>
<path fill-rule="evenodd" clip-rule="evenodd" d="M0 2.4H2.47619V2V0H3.09524V2V2.4H5.57143V3.2H3.09524V3.6V5.6H2.47619V3.6V3.2H0V2.4Z" fill="url(#paint1_linear)"/>
<path fill-rule="evenodd" clip-rule="evenodd" d="M2.78575 9.8L2.23995 10.1708L2.34419 9.38541L1.90263 8.82918L2.51285 8.71459L2.78575 8L3.05865 8.71459L3.66887 8.82918L3.22731 9.38541L3.33155 10.1708L2.78575 9.8Z" fill="white"/>
<path fill-rule="evenodd" clip-rule="evenodd" d="M9.2858 10.4L8.84806 10.5657L8.97627 10L8.84806 9.43433L9.2858 9.60001L9.72353 9.43433L9.59532 10L9.72353 10.5657L9.2858 10.4Z" fill="white"/>
<path fill-rule="evenodd" clip-rule="evenodd" d="M9.2858 2.79998L8.84806 2.96566L8.97627 2.39998L8.84806 1.83429L9.2858 1.99998L9.72353 1.83429L9.59532 2.39998L9.72353 2.96566L9.2858 2.79998Z" fill="white"/>
<path fill-rule="evenodd" clip-rule="evenodd" d="M11.1429 5.2L10.7051 5.36569L10.8333 4.8L10.7051 4.23431L11.1429 4.4L11.5806 4.23431L11.4524 4.8L11.5806 5.36569L11.1429 5.2Z" fill="white"/>
<path fill-rule="evenodd" clip-rule="evenodd" d="M7.42862 5.99999L6.99089 6.16567L7.11909 5.59999L6.99089 5.0343L7.42862 5.19999L7.86635 5.0343L7.73814 5.59999L7.86635 6.16567L7.42862 5.99999Z" fill="white"/>
<path fill-rule="evenodd" clip-rule="evenodd" d="M10.2143 6.99996L9.99544 7.08281L10.0595 6.79996L9.99544 6.51712L10.2143 6.59996L10.4332 6.51712L10.3691 6.79996L10.4332 7.08281L10.2143 6.99996Z" fill="white"/>
</g>
<defs>
<linearGradient id="paint0_linear" x1="0" y1="0" x2="0" y2="6" gradientUnits="userSpaceOnUse">
<stop stop-color="white"/>
<stop offset="1" stop-color="#F0F0F0"/>
</linearGradient>
<linearGradient id="paint1_linear" x1="0" y1="0" x2="0" y2="5.6" gradientUnits="userSpaceOnUse">
<stop stop-color="#FF2E3B"/>
<stop offset="1" stop-color="#FC0D1B"/>
</linearGradient>
</defs>
</svg>

<svg width="13" height="12" fill="none" xmlns="http://www.w3.org/2000/svg"><rect width="13" height="12" rx="2" fill="#fff"/><mask id="a" maskUnits="userSpaceOnUse" x="0" y="0" width="13" height="12"><rect width="13" height="12" rx="2" fill="#fff"/></mask><g mask="url(#a)"><path fill="#0A17A7" d="M0 0h13v12H0z"/><path d="M0-.333h-.75l.503.556 2.08 2.305v.526l-2.06 1.901-.106.1v1.242l.542-.439 2.385-1.926h.37l2.038 1.88a.45.45 0 00.64-.632L3.738 3.07v-.525L5.69.744a.667.667 0 00.215-.49v-.952l-.543.439-2.385 1.926h-.37L.536-.245.44-.333H0z" fill="#FF2E3B" stroke="#fff" stroke-width=".667"/><path fill-rule="evenodd" clip-rule="evenodd" d="M0 2v1.6h2.167v1.781a.62.62 0 001.238 0V3.6h1.81a.667.667 0 00.666-.667v-.266A.667.667 0 005.214 2h-1.81V0H2.168v2H0z" fill="url(#paint0_linear)"/><path fill-rule="evenodd" clip-rule="evenodd" d="M0 2.4h2.476V0h.62v2.4H5.57v.8H3.095v2.4h-.619V3.2H0v-.8z" fill="url(#paint1_linear)"/><path fill-rule="evenodd" clip-rule="evenodd" d="M2.786 9.8l-.546.37.104-.785-.441-.556.61-.114L2.786 8l.273.715.61.114-.442.556.105.786-.546-.371zm6.5.6l-.438.166.128-.566-.128-.566.438.166.438-.166-.129.566.129.566-.438-.166zm0-7.6l-.438.166.128-.566-.128-.566.438.166.438-.166-.129.566.129.566-.438-.166zm1.857 2.4l-.438.166.128-.566-.128-.566.438.166.438-.166-.129.566.129.566-.438-.166zM7.429 6l-.438.166.128-.566-.128-.566.438.166.437-.166-.128.566.128.566L7.43 6zm2.785 1l-.219.083.065-.283-.065-.283.22.083.218-.083-.064.283.064.283L10.214 7z" fill="#fff"/></g><defs><linearGradient id="paint0_linear" x1="0" y1="0" x2="0" y2="6" gradientUnits="userSpaceOnUse"><stop stop-color="#fff"/><stop offset="1" stop-color="#F0F0F0"/></linearGradient><linearGradient id="paint1_linear" x1="0" y1="0" x2="0" y2="5.6" gradientUnits="userSpaceOnUse"><stop stop-color="#FF2E3B"/><stop offset="1" stop-color="#FC0D1B"/></linearGradient></defs></svg>
